www/assets/icons/update_disabled.svg

<svg width="24" height="24" viewBox="0 0 24 24" xmlns="http://www.w3.org/2000/svg" fill='currentColor'><path d="M9.38498 5.1301L7.93498 3.6801C9.31498 2.8001 10.955 2.2901 12.715 2.2901C15.455 2.2901 17.905 3.5201 19.555 5.4501L21.715 3.2901V9.2901H15.715L18.125 6.8801C16.835 5.3101 14.895 4.2901 12.715 4.2901C11.515 4.2901 10.375 4.6001 9.38498 5.1301ZM13.715 6.2901H11.715V7.4601L13.715 9.4601V6.2901ZM20.495 21.9001L17.495 18.9001C16.105 19.7701 14.475 20.2901 12.715 20.2901C7.74498 20.2901 3.71498 16.2601 3.71498 11.2901C3.71498 9.5301 4.22498 7.8901 5.10498 6.5101L2.10498 3.5101L3.51498 2.1001L21.895 20.4801L20.495 21.9001ZM16.035 17.4401L6.55498 7.9601C6.02498 8.9501 5.71498 10.0901 5.71498 11.2901C5.71498 15.1501 8.85498 18.2901 12.715 18.2901C13.915 18.2901 15.055 17.9801 16.035 17.4401ZM21.655 12.2901H19.635C19.515 13.1201 19.245 13.9001 18.865 14.6101L20.335 16.0801C21.035 14.9601 21.505 13.6701 21.655 12.2901Z"/></svg>

<svg xmlns="http://www.w3.org/2000/svg" width="24" height="24" viewBox="0 0 24 24" fill='currentColor'><path d="m9.385 5.13-1.45-1.45a8.86 8.86 0 0 1 4.78-1.39c2.74 0 5.19 1.23 6.84 3.16l2.16-2.16v6h-6l2.41-2.41c-1.29-1.57-3.23-2.59-5.41-2.59-1.2 0-2.34.31-3.33.84m4.33 1.16h-2v1.17l2 2zm6.78 15.61-3-3a8.97 8.97 0 0 1-4.78 1.39 9 9 0 0 1-9-9c0-1.76.51-3.4 1.39-4.78l-3-3 1.41-1.41 18.38 18.38zm-4.46-4.46-9.48-9.48a7.06 7.06 0 0 0-.84 3.33c0 3.86 3.14 7 7 7 1.2 0 2.34-.31 3.32-.85m5.62-5.15h-2.02c-.12.83-.39 1.61-.77 2.32l1.47 1.47c.7-1.12 1.17-2.41 1.32-3.79"/></svg>
